X:1
T:The Bold Black and Tan
M:3/4
L:1/4
K:C
 z2 C/2C/2| C E G| G F E| D C D| C2 C/2C/2| C E G| c B c| B G G| G2 G|\
 c c d| c G E| F G A| G2C/2-D/2| E D E| F G F| E C C| C2 z|
